assets/svg/icon_channel_privatetype.svg

<svg width="24" height="24" viewBox="0 0 24 24" fill="none" xmlns="http://www.w3.org/2000/svg">
<g id="icon/channel_privatetype">
<path id="Vector" d="M19.9913 13.9991C19.9554 16.4787 19.7715 17.8845 18.8284 18.8275C17.6569 19.9991 15.7712 19.9991 12 19.9991C8.22876 19.9991 6.34315 19.9991 5.17157 18.8275C4 17.656 4 15.7704 4 11.9991C4 8.22789 4 6.34227 5.17157 5.17069C6.11466 4.22761 7.52043 4.04368 10 4.00781" stroke="#0166FF" stroke-width="1.2" stroke-linecap="round"/>
<path id="Vector_2" d="M8 16.5996H15.2" stroke="#0166FF" stroke-width="1.2" stroke-linecap="round"/>
<path id="Vector_3" d="M8 13.4004H12.8" stroke="#0166FF" stroke-width="1.2" stroke-linecap="round"/>
<path id="Vector_4" d="M19.1755 9.18753L20.5444 10.5564M13.4453 10.5564L20.5444 3.45731M20.112 6.77865C20.112 7.6627 19.7608 8.51055 19.1357 9.13567C18.5105 9.76079 17.6627 10.112 16.7786 10.112C15.8946 10.112 15.0467 9.76079 14.4216 9.13567C13.7965 8.51055 13.4453 7.6627 13.4453 6.77865C13.4453 5.89459 13.7965 5.04674 14.4216 4.42162C15.0467 3.7965 15.8946 3.44531 16.7786 3.44531C17.6627 3.44531 18.5105 3.7965 19.1357 4.42162C19.7608 5.04674 20.112 5.89459 20.112 6.77865Z" stroke="#0166FF" stroke-width="1.2" stroke-linecap="round" stroke-linejoin="round"/>
</g>
</svg>

<svg xmlns="http://www.w3.org/2000/svg" width="24" height="24" fill="none"><g stroke="#0166FF" stroke-linecap="round" stroke-width="1.2"><path d="M19.991 14c-.036 2.479-.22 3.884-1.163 4.828-1.171 1.171-3.057 1.171-6.828 1.171s-5.657 0-6.828-1.171S4 15.77 4 11.999s0-5.657 1.172-6.828C6.115 4.228 7.52 4.044 10 4.008M8 16.6h7.2M8 13.4h4.8"/><path stroke-linejoin="round" d="m19.176 9.188 1.368 1.368m-7.099 0 7.1-7.099m-.433 3.322a3.333 3.333 0 1 1-6.667 0 3.333 3.333 0 0 1 6.667 0"/></g></svg>
